X:61
T:Seneca Square Dance
B:Slow Jam For Old-Time Music
M:4/4
L:1/8
Z:abc-transcription Josh Larios <hades@elsewhere.org>, 2014.05.22
K:G
A2 | "G"B4B3B | d2B2-BAG2 | "C"B4B2dB | A2G4A2 |
"G"B4B3B | d2B2-BAGB | "D"ABAGE2F2 | "G"G6 :|
|: ef | "G"g4g3e | d2B4ef | "C"g2f2g3a | b2e4g2- |
"G"gabag2e2 | d3 A BAGB | "D"ABAGE2F2 | "G"G6 :|

